dist/img/logo_text.svg

<svg width="814" height="136" viewBox="0 0 814 136" fill="none" xmlns="http://www.w3.org/2000/svg">
<g clip-path="url(#clip0_405_5178)">
<path d="M751.174 -0.000137329C767.936 -0.000137329 782.484 6.37886 794.754 19.1377C807.057 31.8974 813.209 47.8119 813.209 66.9177C813.209 86.577 807.025 102.882 794.625 115.87C782.258 128.855 767.252 135.332 749.644 135.332C731.873 135.332 716.934 128.985 704.827 116.325C692.718 103.664 686.665 87.293 686.665 67.1777C686.665 46.6405 693.663 29.8792 707.626 16.8917C719.765 5.63086 734.282 -0.000137329 751.174 -0.000137329ZM749.352 6.83601C737.829 6.83601 728.554 11.1321 721.589 19.7234C712.898 30.432 708.537 46.0879 708.537 66.7221C708.537 87.8457 713.028 104.12 722.044 115.51C728.977 124.169 738.09 128.498 749.449 128.498C761.589 128.498 771.581 123.745 779.49 114.274C787.399 104.771 791.338 89.831 791.338 69.3912C791.338 47.2264 786.976 30.6923 778.286 19.8213C771.321 11.1642 761.687 6.83601 749.352 6.83601Z" fill="#FEFEFE"/>
<path d="M578.157 60.7338V9.95854H606.604C613.34 9.95854 618.287 10.6098 621.51 11.8796C624.7 13.1494 627.401 15.2327 629.614 18.0647C631.796 20.895 633.715 25.354 635.375 31.441H638.695L637.329 2.92882H541.248V6.44431H545.838C548.962 6.44431 551.891 7.19219 554.625 8.72228C556.61 9.86172 557.912 11.2282 558.564 12.8237C559.378 14.9056 559.8 19.2349 559.8 25.778V109.554C559.8 117.301 559.052 122.183 557.522 124.233C555.081 127.325 551.207 128.887 545.838 128.887H541.248V132.402H596.709V128.887H592.088C589.028 128.887 586.131 128.138 583.365 126.609C581.347 125.47 580.012 124.103 579.394 122.507C578.58 120.425 578.157 116.096 578.157 109.554V68.7395H601.591C605.952 68.7395 609.207 69.3255 611.42 70.5307C613.634 71.7014 615.358 73.4587 616.628 75.8347C617.865 78.1781 618.516 81.8893 618.581 86.9011H622.096V42.9623H618.581C617.735 50.123 616.074 54.8423 613.536 57.2183C611.03 59.5609 607.027 60.7338 601.591 60.7338H578.157Z" fill="#FEFEFE"/>
<path d="M412.04 60.7338V9.95854H440.487C447.224 9.95854 452.171 10.6098 455.393 11.8796C458.583 13.1494 461.284 15.2327 463.498 18.0647C465.678 20.895 467.599 25.354 469.259 31.441H472.579L471.211 2.92882H375.132V6.44431H379.72C382.845 6.44431 385.775 7.19219 388.508 8.72228C390.494 9.86172 391.796 11.2282 392.447 12.8237C393.26 14.9056 393.684 19.2349 393.684 25.778V109.554C393.684 117.301 392.935 122.183 391.404 124.233C388.964 127.325 385.091 128.887 379.72 128.887H375.132V132.402H430.592V128.887H425.97C422.911 128.887 420.015 128.138 417.247 126.609C415.23 125.47 413.896 124.103 413.277 122.507C412.464 120.425 412.04 116.096 412.04 109.554V68.7395H435.475C439.835 68.7395 443.091 69.3255 445.304 70.5307C447.516 71.7014 449.242 73.4587 450.511 75.8347C451.748 78.1781 452.399 81.8893 452.464 86.9011H455.979V42.9623H452.464C451.618 50.123 449.958 54.8423 447.42 57.2183C444.914 59.5609 440.91 60.7338 435.475 60.7338H412.04Z" fill="#FEFEFE"/>
<path d="M236.028 61.1239V9.95854H271.506C277.917 9.95854 282.409 10.4479 284.947 11.3916C288.104 12.758 290.514 14.7113 292.14 17.283C293.767 19.8534 295.233 24.5727 296.567 31.441H300.277L298.91 2.92882H199.119V6.44431H203.709C209.079 6.44431 212.887 7.71404 215.199 10.252C216.858 12.1398 217.672 17.1851 217.672 25.3866V109.554C217.672 115.869 217.313 120.035 216.564 122.085C215.849 124.135 214.449 125.666 212.399 126.675C209.665 128.138 206.768 128.887 203.709 128.887H199.119V132.402H298.877L310.041 99.9858H306.136C302.002 107.927 297.967 113.884 294.028 117.821C291.001 120.815 287.812 122.834 284.524 123.843C281.205 124.852 275.899 125.373 268.608 125.373H246.703C243.156 125.373 240.715 125.014 239.446 124.266C238.176 123.55 237.298 122.541 236.776 121.303C236.288 120.067 236.028 116.585 236.028 110.856V68.1536H264.541C269.943 68.1536 273.946 68.8053 276.55 70.0734C279.154 71.3432 281.041 73.1012 282.181 75.3147C283.059 77.1042 283.971 81.1734 284.85 87.487H288.364V42.3764H284.85C284.459 49.732 282.637 54.8748 279.317 57.8042C276.843 60.0177 271.928 61.1239 264.541 61.1239H236.028Z" fill="#FEFEFE"/>
<path d="M52.6299 2.92969C71.9622 2.9297 86.6746 5.11035 96.7314 9.50488C106.821 13.8986 114.925 21.2221 121.044 31.4746C127.196 41.7276 130.255 53.5746 130.255 66.9844C130.255 85.0146 124.787 100.051 113.852 112.159C101.581 125.667 82.8986 132.403 57.7715 132.403H0V128.889H4.84961C10.317 128.889 14.1907 127.131 16.4688 123.648C17.8684 121.566 18.5518 116.847 18.5518 109.556V25.7793C18.5518 17.7065 17.674 12.6626 15.8828 10.6436C13.4102 7.84534 9.73099 6.44531 4.84961 6.44531H0V2.92969H52.6299ZM56.4043 10.1553C50.7087 10.1553 44.1993 11.0675 36.9082 12.9229V122.9C44.9807 124.69 51.7178 125.569 57.1855 125.569C71.8971 125.569 84.1026 120.393 93.835 110.012C103.534 99.6613 108.384 85.6005 108.384 67.8623C108.384 49.9944 103.534 35.9012 93.835 25.6162C84.1026 15.2991 71.6366 10.1553 56.4043 10.1553Z" fill="#FEFEFE"/>
</g>
<defs>
<clipPath id="clip0_405_5178">
<rect width="813.209" height="135.332" fill="white"/>
</clipPath>
</defs>
</svg>

<svg width="814" height="136" viewBox="0 0 814 136" fill="none" xmlns="http://www.w3.org/2000/svg"><g clip-path="url(#clip0_405_5178)" fill="#FEFEFE"><path d="M751.174 0c16.762 0 31.31 6.379 43.58 19.138 12.303 12.76 18.455 28.674 18.455 47.78 0 19.659-6.184 35.964-18.584 48.952-12.367 12.985-27.373 19.462-44.981 19.462-17.771 0-32.71-6.347-44.817-19.007-12.109-12.661-18.162-29.032-18.162-49.147 0-20.537 6.998-37.299 20.961-50.286C719.765 5.63 734.282 0 751.174 0zm-1.822 6.836c-11.523 0-20.798 4.296-27.763 12.887-8.691 10.709-13.052 26.365-13.052 47 0 21.123 4.491 37.397 13.507 48.787 6.933 8.659 16.046 12.988 27.405 12.988 12.14 0 22.132-4.753 30.041-14.224 7.909-9.503 11.848-24.443 11.848-44.883 0-22.165-4.362-38.699-13.052-49.57-6.965-8.657-16.599-12.985-28.934-12.985zM578.157 60.734V9.959h28.447c6.736 0 11.683.65 14.906 1.92 3.19 1.27 5.891 3.354 8.104 6.186 2.182 2.83 4.101 7.289 5.761 13.376h3.32l-1.366-28.512h-96.081v3.515h4.59c3.124 0 6.053.748 8.787 2.278 1.985 1.14 3.287 2.506 3.939 4.102.814 2.082 1.236 6.41 1.236 12.954v83.776c0 7.747-.748 12.629-2.278 14.679-2.441 3.092-6.315 4.654-11.684 4.654h-4.59v3.515h55.461v-3.515h-4.621c-3.06 0-5.957-.749-8.723-2.278-2.018-1.139-3.353-2.506-3.971-4.102-.814-2.082-1.237-6.411-1.237-12.953V68.74h23.434c4.361 0 7.616.586 9.829 1.79 2.214 1.171 3.938 2.929 5.208 5.305 1.237 2.343 1.888 6.054 1.953 11.066h3.515V42.962h-3.515c-.846 7.161-2.507 11.88-5.045 14.256-2.506 2.343-6.509 3.516-11.945 3.516h-23.434zm-166.117 0V9.959h28.447c6.737 0 11.684.65 14.906 1.92 3.19 1.27 5.891 3.354 8.105 6.186 2.18 2.83 4.101 7.289 5.761 13.376h3.32l-1.368-28.512h-96.079v3.515h4.588c3.125 0 6.055.748 8.788 2.278 1.986 1.14 3.288 2.506 3.939 4.102.813 2.082 1.237 6.41 1.237 12.954v83.776c0 7.747-.749 12.629-2.28 14.679-2.44 3.092-6.313 4.654-11.684 4.654h-4.588v3.515h55.46v-3.515h-4.622c-3.059 0-5.955-.749-8.723-2.278-2.017-1.139-3.351-2.506-3.97-4.102-.813-2.082-1.237-6.411-1.237-12.953V68.74h23.435c4.36 0 7.616.586 9.829 1.79 2.212 1.171 3.938 2.929 5.207 5.305 1.237 2.343 1.888 6.054 1.953 11.066h3.515V42.962h-3.515c-.846 7.161-2.506 11.88-5.044 14.256-2.506 2.343-6.51 3.516-11.945 3.516H412.04zm-176.012.39V9.959h35.478c6.411 0 10.903.489 13.441 1.433 3.157 1.366 5.567 3.32 7.193 5.891 1.627 2.57 3.093 7.29 4.427 14.158h3.71L298.91 2.929h-99.791v3.515h4.59c5.37 0 9.178 1.27 11.49 3.808 1.659 1.888 2.473 6.933 2.473 15.135v84.167c0 6.315-.359 10.481-1.108 12.531-.715 2.05-2.115 3.581-4.165 4.59-2.734 1.463-5.631 2.212-8.69 2.212h-4.59v3.515h99.758l11.164-32.416h-3.905c-4.134 7.941-8.169 13.898-12.108 17.835-3.027 2.994-6.216 5.013-9.504 6.022-3.319 1.009-8.625 1.53-15.916 1.53h-21.905c-3.547 0-5.988-.359-7.257-1.107-1.27-.716-2.148-1.725-2.67-2.963-.488-1.236-.748-4.718-.748-10.447V68.154h28.513c5.402 0 9.405.651 12.009 1.92 2.604 1.27 4.491 3.027 5.631 5.24.878 1.79 1.79 5.86 2.669 12.173h3.514v-45.11h-3.514c-.391 7.355-2.213 12.498-5.533 15.427-2.474 2.214-7.389 3.32-14.776 3.32h-28.513zM52.63 2.93c19.332 0 34.045 2.18 44.101 6.575 10.09 4.394 18.194 11.717 24.313 21.97 6.152 10.253 9.211 22.1 9.211 35.51 0 18.03-5.468 33.066-16.403 45.174-12.271 13.508-30.953 20.244-56.08 20.244H0v-3.514h4.85c5.467 0 9.34-1.758 11.619-5.241 1.4-2.082 2.083-6.801 2.083-14.092V25.779c0-8.073-.878-13.116-2.67-15.135C13.41 7.845 9.732 6.445 4.85 6.445H0V2.93h52.63zm3.774 7.225c-5.695 0-12.205.913-19.496 2.768V122.9c8.073 1.79 14.81 2.669 20.277 2.669 14.712 0 26.918-5.176 36.65-15.557 9.699-10.35 14.549-24.412 14.549-42.15 0-17.868-4.85-31.96-14.549-42.246-9.732-10.317-22.198-15.46-37.43-15.46z"/></g><defs><clipPath id="clip0_405_5178"><path fill="#fff" d="M0 0h813.209v135.332H0z"/></clipPath></defs></svg>85 236.028 110.856V68.1536H264.541C269.943 68.1536 273.946 68.8053 276.55 70.0734C279.154 71.3432 281.041 73.1012 282.181 75.3147C283.059 77.1042 283.971 81.1734 284.85 87.487H288.364V42.3764H284.85C284.459 49.732 282.637 54.8748 279.317 57.8042C276.843 60.0177 271.928 61.1239 264.541 61.1239H236.028Z" fill="#FEFEFE"/>
<path d="M52.6299 2.92969C71.9622 2.9297 86.6746 5.11035 96.7314 9.50488C106.821 13.8986 114.925 21.2221 121.044 31.4746C127.196 41.7276 130.255 53.5746 130.255 66.9844C130.255 85.0146 124.787 100.051 113.852 112.159C101.581 125.667 82.8986 132.403 57.7715 132.403H0V128.889H4.84961C10.317 128.889 14.1907 127.131 16.4688 123.648C17.8684 121.566 18.5518 116.847 18.5518 109.556V25.7793C18.5518 17.7065 17.674 12.6626 15.8828 10.6436C13.4102 7.84534 9.73099 6.44531 4.84961 6.44531H0V2.92969H52.6299ZM56.4043 10.1553C50.7087 10.1553 44.1993 11.0675 36.9082 12.9229V122.9C44.9807 124.69 51.7178 125.569 57.1855 125.569C71.8971 125.569 84.1026 120.393 93.835 110.012C103.534 99.6613 108.384 85.6005 108.384 67.8623C108.384 49.9944 103.534 35.9012 93.835 25.6162C84.1026 15.2991 71.6366 10.1553 56.4043 10.1553Z" fill="#FEFEFE"/>
</g>
<defs>
<clipPath id="clip0_405_5178">
<rect width="813.209" height="135.332" fill="white"/>
</clipPath>
</defs>
</svg>
